X:1
T:5'th house
T:(What is this thing called love)
M:4/4
L:1/4
C:John Coltrane
Q:1/4=200
%%staves (chords melody)
K:Cm
%%text (medium up)
%%vskip 20
P:A
V:chords
"Gm7b5"x2 "Ab7"x2 | "Db6"x2 "E7"x2 | "Amaj7"x2 "C7"x2 | "Fm6"x2 x2 |
"Dm7b5"x2 "Eb7"x2 | "Ab6"x2 "B7"x2 | "Emaj7"x2 "G7"x2 | "Cmaj7"x2 !fine!x2 :|
V:melody
F2_G2 | f2=e2 | =e2_d>c- | c4 |
C2_D2 | c2=B2 | =B2_A>G- | G4 :|
P:B
V:chords
"Cm7"x2 "Db7"x2 | "Gb6"x2 "A7"x2 | "Dmaj7"x2 "F7"x2 | "Bbmaj7"x2 x2 |
"Ebm7"x2 x2 | "Ab7"x2 x2 | "Dm7"x2 x2 | "G7"x2 !D.C.!x2 ||
V:melody
B2_c2 | b2=a2 | =a2_g>f- | f4 |
z>b-b2 |a/b/a/f/-f e/f/ | z>=a-a2 | g/=a/g/e/ de ||
